assets/works4.svg

<svg viewBox="0 0 71 70" fill="none" xmlns="http://www.w3.org/2000/svg">
  <path d="M41.0471 70H29.5942l-.8246-3.9398c-1.0994-.1832-2.1989-.4581-3.2984-.8246l-2.7487 3.0236-9.8953-5.6807 1.1911-3.8481c-.8246-.733-1.5576-1.5576-2.2906-2.2906l-4.03137 1.2827-5.68061-9.8953 3.2068-2.9319c-.27486-.9162-.54975-1.9241-.733-2.8403L0 41.0471V29.5942l4.76441-1.0078c.18325-.733.4581-1.5576.73297-2.3822L1.6492 22.7225l5.77227-9.8953 5.13093 1.6492 1.3743-1.3743-1.7408-5.40576 9.8953-5.68063 3.9397 4.30628c.5498-.18325 1.0079-.27487 1.5576-.36649L28.8613 0h11.4528l1.2828 5.9555c.4581.09162.9162.18324 1.3743.36649l4.2147-4.67278 9.8952 5.77226-1.8324 5.77223c.3665.3665.733.6414 1.0079 1.0079l5.9555-1.9241 5.7722 9.8953-4.2147 3.8481c.1833.5498.3665 1.0995.5498 1.6493l5.7722 1.1911v11.4528l-5.1308 1.0995c-.0917.733-.2749 1.466-.4582 2.199l3.9398 3.5733-5.7722 9.8953-4.4896-1.466c-.5497.733-1.1911 1.3743-1.8324 2.0157l1.4659 4.5811-9.9869 5.7723-2.8403-3.1152c-1.0078.3665-2.0157.6414-3.0236.9162L41.0471 70Zm-9.1623-2.8403h6.8717l.8247-3.7566.9162-.1832c1.466-.2749 2.9319-.733 4.3979-1.3743l.9162-.3665 2.5655 2.8403 5.9555-3.4817-1.2827-4.0314.6413-.6414c1.0078-1.0078 2.0157-2.0157 2.8403-3.1152l.6414-.7329 4.123 1.3743 3.4817-5.9555-3.5733-3.2068.2748-.8246c.3665-1.0995.5498-2.2906.8247-3.6649l.1832-1.0079 4.7644-1.0078v-6.8718l-5.2225-1.0994-.1832-.8246c-.2749-1.0995-.5498-2.1074-1.0079-3.1152l-.3665-.9163 3.9398-3.5733-3.4817-5.9555-5.4058 1.7409-.6413-.6414c-.733-.733-1.466-1.466-2.1989-2.1073l-.733-.6414 1.7408-5.31411-5.9555-3.48168-3.8482 4.30629-.8246-.27487c-.9162-.27487-1.9241-.54974-2.8403-.73299l-.9162-.18324-1.1911-5.49739h-6.9634L29.9607 8.3377l-.9162.18324c-1.0078.18325-2.0157.45812-3.0236.82461l-.8246.27487-3.5733-4.03141-5.9555 3.48167 1.6492 5.03922-.7329.6414c-.8246.733-1.6492 1.466-2.4739 2.4738l-.6413.6414-4.67278-1.5576-3.48169 5.9555 3.48169 3.2068-.36649.9162c-.54974 1.3744-.91624 2.6571-1.09949 3.8482l-.18325.9162-4.30627.9163v6.8717l4.12304.9162.18323.9163c.27487 1.4659.64137 2.9319 1.09948 4.3062l.27486.9163-2.93192 2.657 3.48167 5.9555 3.66492-1.1911.6414.733c1.0078 1.1911 2.1073 2.2906 3.2984 3.2985l.733.6413-1.0995 3.3901 5.9555 3.4816 2.4738-2.7487.9163.2749c1.4659.5498 3.0235.9162 4.6727 1.1911l.9163.1833.6413 3.2984Z" fill="#F86A2E"/>
  <path d="M49.8429 38.9394c-.6413 2.5655-2.0157 5.0393-3.9397 6.9634-2.932 2.9319-6.6885 4.4895-10.8116 4.4895-2.6571 0-5.3141-.733-7.6047-2.0157l9.3456-9.3455h13.0104v-.0917Zm3.2985-2.8403h-17.5L23.089 48.6515C26.3874 51.5834 30.6021 53.141 35 53.141c4.856 0 9.3456-1.9241 12.8272-5.3141 3.2068-3.2068 5.1309-7.3299 5.3142-11.7278Z" fill="#282D33"/>
  <path d="M39.123 20.2486c5.1309 1.3744 9.1623 5.2225 10.6283 10.2618H39.123V20.2486Zm-2.8403-3.2984v16.4005h16.8586c-.8246-8.979-7.9712-15.8508-16.8586-16.4005ZM49.8429 38.9394c-.6413 2.5655-2.0157 5.0393-3.9397 6.9634-2.932 2.9319-6.6885 4.4895-10.8116 4.4895-2.6571 0-5.3141-.733-7.6047-2.0157l9.3456-9.3455h13.0104v-.0917Zm3.2985-2.8403h-17.5L23.089 48.6515C26.3874 51.5834 30.6021 53.141 35 53.141c4.856 0 9.3456-1.9241 12.8272-5.3141 3.2068-3.2068 5.1309-7.3299 5.3142-11.7278Z" fill="#F86A2E"/>
  <path d="M35 58.3637c-5.6806 0-11.178-2.1074-15.4843-5.8639l1.8324-2.1073c3.7566 3.2984 8.6126 5.1309 13.5603 5.1309 11.2696 0 20.5235-9.1624 20.5235-20.5236 0-10.9948-8.5209-19.9738-19.5157-20.4319l.0916-2.8404c12.4608.5498 22.1728 10.8116 22.1728 23.2723C58.2722 47.9186 47.8272 58.3637 35 58.3637Z" fill="#fff"/>
  <path d="M30.6021 15.3015V33.168L18.0498 45.9953c-2.1074-3.2069-3.2068-7.055-3.2068-10.9948 0-9.5288 6.6884-17.5916 15.7591-19.699Zm2.7487-3.2068c-12.0026.8246-21.4398 10.8115-21.4398 22.9974 0 5.8639 2.199 11.178 5.7723 15.3011l15.5759-15.9424V12.0947h.0916Z" fill="#F86A2E"/>
</svg>

<svg width="71" height="70" viewBox="0 0 71 70" fill="none" xmlns="http://www.w3.org/2000/svg">
<path d="M41.0471 70H29.5942L28.7696 66.0602C27.6702 65.877 26.5707 65.6021 25.4712 65.2356L22.7225 68.2592L12.8272 62.5785L14.0183 58.7304C13.1937 57.9974 12.4607 57.1728 11.7277 56.4398L7.69633 57.7225L2.01572 47.8272L5.22252 44.8953C4.94766 43.9791 4.67277 42.9712 4.48952 42.055L0 41.0471V29.5942L4.76441 28.5864C4.94766 27.8534 5.22251 27.0288 5.49738 26.2042L1.6492 22.7225L7.42147 12.8272L12.5524 14.4764C13.0105 14.0183 13.4686 13.5602 13.9267 13.1021L12.1859 7.69634L22.0812 2.01571L26.0209 6.32199C26.5707 6.13874 27.0288 6.04712 27.5785 5.9555L28.8613 0H40.3141L41.5969 5.9555C42.055 6.04712 42.5131 6.13874 42.9712 6.32199L47.1859 1.64921L57.0811 7.42147L55.2487 13.1937C55.6152 13.5602 55.9817 13.8351 56.2566 14.2016L62.2121 12.2775L67.9843 22.1728L63.7696 26.0209C63.9529 26.5707 64.1361 27.1204 64.3194 27.6702L70.0916 28.8613V40.3141L64.9608 41.4136C64.8691 42.1466 64.6859 42.8796 64.5026 43.6126L68.4424 47.1859L62.6702 57.0812L58.1806 55.6152C57.6309 56.3482 56.9895 56.9895 56.3482 57.6309L57.8141 62.212L47.8272 67.9843L44.9869 64.8691C43.9791 65.2356 42.9712 65.5105 41.9633 65.7853L41.0471 70ZM31.8848 67.1597H38.7565L39.5812 63.4031L40.4974 63.2199C41.9634 62.945 43.4293 62.4869 44.8953 61.8456L45.8115 61.4791L48.377 64.3194L54.3325 60.8377L53.0498 56.8063L53.6911 56.1649C54.6989 55.1571 55.7068 54.1492 56.5314 53.0497L57.1728 52.3168L61.2958 53.6911L64.7775 47.7356L61.2042 44.5288L61.479 43.7042C61.8455 42.6047 62.0288 41.4136 62.3037 40.0393L62.4869 39.0314L67.2513 38.0236V31.1518L62.0288 30.0524L61.8456 29.2278C61.5707 28.1283 61.2958 27.1204 60.8377 26.1126L60.4712 25.1963L64.411 21.623L60.9293 15.6675L55.5235 17.4084L54.8822 16.767C54.1492 16.034 53.4162 15.301 52.6833 14.6597L51.9503 14.0183L53.6911 8.70419L47.7356 5.22251L43.8874 9.5288L43.0628 9.25393C42.1466 8.97906 41.1387 8.70419 40.2225 8.52094L39.3063 8.3377L38.1152 2.84031H31.1518L29.9607 8.3377L29.0445 8.52094C28.0367 8.70419 27.0288 8.97906 26.0209 9.34555L25.1963 9.62042L21.623 5.58901L15.6675 9.07068L17.3167 14.1099L16.5838 14.7513C15.7592 15.4843 14.9346 16.2173 14.1099 17.2251L13.4686 17.8665L8.79582 16.3089L5.31413 22.2644L8.79582 25.4712L8.42933 26.3874C7.87959 27.7618 7.51309 29.0445 7.32984 30.2356L7.14659 31.1518L2.84032 32.0681V38.9398L6.96336 39.856L7.14659 40.7723C7.42146 42.2382 7.78796 43.7042 8.24607 45.0785L8.52093 45.9948L5.58901 48.6518L9.07068 54.6073L12.7356 53.4162L13.377 54.1492C14.3848 55.3403 15.4843 56.4398 16.6754 57.4477L17.4084 58.089L16.3089 61.4791L22.2644 64.9607L24.7382 62.212L25.6545 62.4869C27.1204 63.0367 28.678 63.4031 30.3272 63.678L31.2435 63.8613L31.8848 67.1597Z" fill="#F86A2E"/>
<path d="M49.8429 38.9394C49.2016 41.5049 47.8272 43.9787 45.9032 45.9028C42.9712 48.8347 39.2147 50.3923 35.0916 50.3923C32.4345 50.3923 29.7775 49.6593 27.4869 48.3766L36.8325 39.0311H49.8429V38.9394ZM53.1414 36.0991H35.6414L23.089 48.6515C26.3874 51.5834 30.6021 53.141 35 53.141C39.856 53.141 44.3456 51.2169 47.8272 47.8269C51.034 44.6201 52.9581 40.497 53.1414 36.0991Z" fill="#282D33"/>
<path d="M39.123 20.2486C44.2539 21.623 48.2853 25.4711 49.7513 30.5104H39.123V20.2486ZM36.2827 16.9502V33.3507H53.1413C52.3167 24.3717 45.1701 17.4999 36.2827 16.9502Z" fill="#F86A2E"/>
<path d="M49.8429 38.9394C49.2016 41.5049 47.8272 43.9787 45.9032 45.9028C42.9712 48.8347 39.2147 50.3923 35.0916 50.3923C32.4345 50.3923 29.7775 49.6593 27.4869 48.3766L36.8325 39.0311H49.8429V38.9394ZM53.1414 36.0991H35.6414L23.089 48.6515C26.3874 51.5834 30.6021 53.141 35 53.141C39.856 53.141 44.3456 51.2169 47.8272 47.8269C51.034 44.6201 52.9581 40.497 53.1414 36.0991Z" fill="#F86A2E"/>
<path d="M35 58.3637C29.3194 58.3637 23.822 56.2563 19.5157 52.4998L21.3481 50.3925C25.1047 53.6909 29.9607 55.5234 34.9084 55.5234C46.178 55.5234 55.4319 46.361 55.4319 34.9998C55.4319 24.005 46.911 15.026 35.9162 14.5679L36.0078 11.7275C48.4686 12.2773 58.1806 22.5391 58.1806 34.9998C58.2722 47.9186 47.8272 58.3637 35 58.3637Z" fill="white"/>
<path d="M30.6021 15.3015V33.168L18.0498 45.9953C15.9424 42.7884 14.843 38.9403 14.843 35.0005C14.843 25.4717 21.5314 17.4089 30.6021 15.3015ZM33.3508 12.0947C21.3482 12.9193 11.911 22.9062 11.911 35.0921C11.911 40.956 14.11 46.2701 17.6833 50.3932L33.2592 34.4508V12.0947H33.3508Z" fill="#F86A2E"/>
</svg>
